X:206
T:The Bridegroom Soon Will Call Us
%%stretchlast false
M:3/4
L:1/4
K:F clef=C1
"^I"[FAc] "^I¹"[A,Fcf]2 | "^vi"[DFAf] "^V"[CEcg]2 | "^ii"[G,Gdb] "^VI"[D_Gda]3/2 "^vii7³"[DEdg]/ | "^VI"[D_Gda] "^V/V"[G,G=Bg]2 | "^V"[CEcg] "^I¹"[A,Fcf]2 | "^IV"[B,DBf] "^ii"[G,DBb]2 | "^I"[F,Fca] "^V"[CEcg]2 | "^iii¹"[CEca] "^vi"[DFAd]2 | "^V"[CGce] "^IV"[B,Bdf]2 | "^ii"[G,Bdg] "^V"[CGce]3/2 "^vi7³"[CFcd]/ | "^V"[CGce] [CEc]2 | "^I"[F,Fca] [F,Fca]2 | "^iii"[A,Ecc'] "^ii"[G,Gdb] [G,Ddb] | [G,EBb] "^I"[F,Fca]2 | [FAca] [FAca]2 | "^V"[CGec'] [CEcg]2 | "^I"[Fca] "^IV"[B,Fdb]3/2 "^iv"[B,Fcc']/ | "^IV"[B,Fdb] "^I"[F,Fca]2 | [Fca] [FAca]2 | "^V"[CGec'] "^IV¹"[Ddfb]2 | "^I"[Fcfa] "^V"[Cceg]2 | "^I"[F,cfa] "^V"[Cceg]2 | "^vi"[DAdf] "^ii"[G,Bdg]2 | "^V"[CGce] "^I¹"[A,Fcf]3/2 "^V²"[G,Gce]/ | "^vi¹"[F,Adf] "^V"[CGeg]2 | "^I"[Fca] "^V¹"[EGcc']2 | "^I"[Fca] "^IV"[B,Fdb] "^V"[CEcg]2 | "^I"[F,FAf]2 |]
